src/assets/clubs_5.svg

<?xml version="1.0" encoding="UTF-8"?>
<svg xmlns="http://www.w3.org/2000/svg" xmlns:xlink="http://www.w3.org/1999/xlink" width="99px" height="140px" viewBox="0 0 99 140" version="1.1">
<g id="surface1">
<path style="fill-rule:nonzero;fill:rgb(100%,100%,100%);fill-opacity:1;stroke-width:0.756;stroke-linecap:butt;stroke-linejoin:miter;stroke:rgb(50.196078%,50.196078%,50.196078%);stroke-opacity:1;stroke-miterlimit:4;" d="M 9.297538 719.743173 L 224.702368 719.743173 C 229.632765 719.743173 233.621402 723.747721 233.621402 728.681399 L 233.621402 1043.043061 C 233.621402 1047.976739 229.632765 1051.981287 224.702368 1051.981287 L 9.297538 1051.981287 C 4.36714 1051.981287 0.378504 1047.976739 0.378504 1043.043061 L 0.378504 728.681399 C 0.378504 723.747721 4.36714 719.743173 9.297538 719.743173 Z M 9.297538 719.743173 " transform="matrix(0.423077,0,0,0.42042,0.0000199974,-302.434571)"/>
<path style=" stroke:none;fill-rule:nonzero;fill:rgb(0%,0%,0%);fill-opacity:1;" d="M 23.785156 32.773438 L 25.820312 32.773438 L 25.820312 39.820312 L 23.785156 39.820312 Z M 23.785156 32.773438 "/>
<path style=" stroke:none;fill-rule:nonzero;fill:rgb(0%,0%,0%);fill-opacity:1;" d="M 36 29.40625 C 37.605469 32.285156 36.5625 35.914062 33.675781 37.511719 C 30.789062 39.113281 27.148438 38.074219 25.542969 35.195312 C 25.117188 34.429688 24.863281 33.578125 24.804688 32.703125 C 24.582031 35.992188 21.726562 38.472656 18.429688 38.25 C 15.136719 38.027344 12.644531 35.179688 12.871094 31.894531 C 13.09375 28.609375 15.949219 26.128906 19.242188 26.351562 C 20.109375 26.410156 20.949219 26.65625 21.722656 27.074219 C 18.898438 25.382812 17.972656 21.722656 19.667969 18.898438 C 21.363281 16.070312 25.035156 15.148438 27.871094 16.839844 C 30.707031 18.527344 31.632812 22.1875 29.9375 25.015625 C 29.425781 25.867188 28.710938 26.574219 27.863281 27.085938 C 30.753906 25.488281 34.394531 26.527344 36 29.40625 Z M 36 29.40625 "/>
<path style=" stroke:none;fill-rule:nonzero;fill:rgb(0%,0%,0%);fill-opacity:1;" d="M 6.9375 23.441406 L 7.617188 23.441406 L 7.617188 25.789062 L 6.9375 25.789062 Z M 6.9375 23.441406 "/>
<path style=" stroke:none;fill-rule:nonzero;fill:rgb(0%,0%,0%);fill-opacity:1;" d="M 11.011719 22.316406 C 11.546875 23.277344 11.199219 24.488281 10.238281 25.019531 C 9.273438 25.550781 8.058594 25.207031 7.523438 24.246094 C 7.382812 23.992188 7.296875 23.707031 7.277344 23.417969 C 7.203125 24.511719 6.253906 25.339844 5.15625 25.265625 C 4.054688 25.191406 3.226562 24.242188 3.300781 23.148438 C 3.375 22.050781 4.328125 21.226562 5.425781 21.300781 C 5.714844 21.320312 5.996094 21.402344 6.25 21.539062 C 5.308594 20.976562 5.003906 19.757812 5.566406 18.8125 C 6.132812 17.871094 7.355469 17.566406 8.300781 18.128906 C 9.246094 18.691406 9.554688 19.910156 8.988281 20.855469 C 8.820312 21.136719 8.582031 21.375 8.296875 21.542969 C 9.261719 21.011719 10.476562 21.359375 11.011719 22.316406 Z M 11.011719 22.316406 "/>
<path style=" stroke:none;fill-rule:nonzero;fill:rgb(0%,0%,0%);fill-opacity:1;" d="M 91.621094 116.558594 L 92.300781 116.558594 L 92.300781 114.210938 L 91.621094 114.210938 Z M 91.621094 116.558594 "/>
<path style=" stroke:none;fill-rule:nonzero;fill:rgb(0%,0%,0%);fill-opacity:1;" d="M 95.691406 117.683594 C 96.226562 116.722656 95.882812 115.511719 94.917969 114.980469 C 93.957031 114.449219 92.742188 114.792969 92.207031 115.753906 C 92.066406 116.007812 91.980469 116.292969 91.960938 116.582031 C 91.886719 115.488281 90.9375 114.660156 89.835938 114.734375 C 88.738281 114.808594 87.910156 115.757812 87.984375 116.851562 C 88.058594 117.949219 89.007812 118.773438 90.109375 118.699219 C 90.394531 118.679688 90.675781 118.597656 90.933594 118.460938 C 89.992188 119.023438 89.683594 120.242188 90.25 121.1875 C 90.8125 122.128906 92.039062 122.433594 92.984375 121.871094 C 93.929688 121.308594 94.238281 120.089844 93.671875 119.144531 C 93.5 118.863281 93.265625 118.625 92.980469 118.457031 C 93.945312 118.988281 95.160156 118.640625 95.691406 117.683594 Z M 95.691406 117.683594 "/>
<path style=" stroke:none;fill-rule:nonzero;fill:rgb(0%,0%,0%);fill-opacity:1;" d="M 48.480469 74.867188 L 50.515625 74.867188 L 50.515625 81.914062 L 48.480469 81.914062 Z M 48.480469 74.867188 "/>
<path style=" stroke:none;fill-rule:nonzero;fill:rgb(0%,0%,0%);fill-opacity:1;" d="M 60.695312 71.5 C 62.300781 74.375 61.257812 78.007812 58.371094 79.605469 C 55.484375 81.203125 51.84375 80.167969 50.238281 77.289062 C 49.808594 76.523438 49.558594 75.671875 49.5 74.796875 C 49.277344 78.085938 46.421875 80.566406 43.125 80.34375 C 39.832031 80.121094 37.339844 77.273438 37.566406 73.988281 C 37.789062 70.703125 40.640625 68.222656 43.9375 68.445312 C 44.804688 68.503906 45.644531 68.75 46.417969 69.167969 C 43.59375 67.476562 42.667969 63.816406 44.363281 60.992188 C 46.058594 58.164062 49.730469 57.242188 52.566406 58.933594 C 55.402344 60.621094 56.328125 64.28125 54.632812 67.109375 C 54.121094 67.960938 53.40625 68.667969 52.558594 69.179688 C 55.449219 67.582031 59.089844 68.621094 60.695312 71.5 Z M 60.695312 71.5 "/>
<path style=" stroke:none;fill-rule:nonzero;fill:rgb(0%,0%,0%);fill-opacity:1;" d="M 73.175781 32.773438 L 75.210938 32.773438 L 75.210938 39.820312 L 73.175781 39.820312 Z M 73.175781 32.773438 "/>
<path style=" stroke:none;fill-rule:nonzero;fill:rgb(0%,0%,0%);fill-opacity:1;" d="M 85.390625 29.40625 C 86.996094 32.285156 85.953125 35.914062 83.066406 37.511719 C 80.179688 39.113281 76.539062 38.074219 74.933594 35.195312 C 74.503906 34.429688 74.253906 33.578125 74.195312 32.703125 C 73.972656 35.992188 71.117188 38.472656 67.820312 38.25 C 64.527344 38.027344 62.035156 35.179688 62.261719 31.894531 C 62.484375 28.609375 65.335938 26.128906 68.632812 26.351562 C 69.5 26.410156 70.339844 26.65625 71.113281 27.074219 C 68.289062 25.382812 67.363281 21.722656 69.058594 18.898438 C 70.753906 16.070312 74.425781 15.148438 77.261719 16.839844 C 80.097656 18.527344 81.023438 22.1875 79.328125 25.015625 C 78.816406 25.867188 78.101562 26.574219 77.253906 27.085938 C 80.144531 25.488281 83.785156 26.527344 85.390625 29.40625 Z M 85.390625 29.40625 "/>
<path style=" stroke:none;fill-rule:nonzero;fill:rgb(0%,0%,0%);fill-opacity:1;" d="M 23.785156 107.226562 L 25.820312 107.226562 L 25.820312 100.179688 L 23.785156 100.179688 Z M 23.785156 107.226562 "/>
<path style=" stroke:none;fill-rule:nonzero;fill:rgb(0%,0%,0%);fill-opacity:1;" d="M 36 110.59375 C 37.605469 107.714844 36.5625 104.085938 33.675781 102.488281 C 30.789062 100.886719 27.148438 101.925781 25.542969 104.804688 C 25.117188 105.570312 24.863281 106.421875 24.804688 107.296875 C 24.582031 104.007812 21.726562 101.527344 18.429688 101.75 C 15.136719 101.972656 12.644531 104.820312 12.871094 108.101562 C 13.09375 111.386719 15.949219 113.871094 19.242188 113.648438 C 20.109375 113.589844 20.949219 113.34375 21.722656 112.925781 C 18.898438 114.617188 17.972656 118.277344 19.667969 121.101562 C 21.363281 123.929688 25.035156 124.851562 27.871094 123.160156 C 30.707031 121.472656 31.632812 117.8125 29.9375 114.984375 C 29.425781 114.132812 28.710938 113.425781 27.863281 112.914062 C 30.753906 114.511719 34.394531 113.472656 36 110.59375 Z M 36 110.59375 "/>
<path style=" stroke:none;fill-rule:nonzero;fill:rgb(0%,0%,0%);fill-opacity:1;" d="M 73.175781 107.226562 L 75.210938 107.226562 L 75.210938 100.179688 L 73.175781 100.179688 Z M 73.175781 107.226562 "/>
<path style=" stroke:none;fill-rule:nonzero;fill:rgb(0%,0%,0%);fill-opacity:1;" d="M 85.390625 110.59375 C 86.996094 107.714844 85.953125 104.085938 83.066406 102.488281 C 80.179688 100.886719 76.539062 101.925781 74.933594 104.804688 C 74.503906 105.570312 74.253906 106.421875 74.195312 107.296875 C 73.972656 104.007812 71.117188 101.527344 67.820312 101.75 C 64.527344 101.972656 62.035156 104.820312 62.261719 108.101562 C 62.484375 111.386719 65.335938 113.871094 68.632812 113.648438 C 69.5 113.589844 70.339844 113.34375 71.113281 112.925781 C 68.289062 114.617188 67.363281 118.277344 69.058594 121.101562 C 70.753906 123.929688 74.425781 124.851562 77.261719 123.160156 C 80.097656 121.472656 81.023438 117.8125 79.328125 114.984375 C 78.816406 114.132812 78.101562 113.425781 77.253906 112.914062 C 80.144531 114.511719 83.785156 113.472656 85.390625 110.59375 Z M 85.390625 110.59375 "/>
<path style=" stroke:none;fill-rule:nonzero;fill:rgb(0%,0%,0%);fill-opacity:1;" d="M 11.261719 11.179688 C 11.261719 12.410156 10.890625 13.386719 10.148438 14.113281 C 9.410156 14.835938 8.425781 15.199219 7.203125 15.199219 C 6.027344 15.199219 5.09375 14.910156 4.410156 14.335938 C 3.667969 13.71875 3.296875 12.832031 3.296875 11.675781 C 3.296875 11.488281 3.445312 11.394531 3.738281 11.394531 L 4.8125 11.394531 C 4.929688 11.394531 5.035156 11.410156 5.132812 11.445312 C 5.167969 11.5 5.1875 11.570312 5.199219 11.660156 C 5.292969 12.277344 5.46875 12.722656 5.734375 12.992188 C 6.027344 13.292969 6.480469 13.445312 7.09375 13.445312 C 7.707031 13.445312 8.203125 13.230469 8.578125 12.796875 C 8.933594 12.382812 9.113281 11.867188 9.113281 11.246094 C 9.113281 9.714844 8.480469 8.949219 7.21875 8.949219 C 6.757812 8.949219 6.296875 9.109375 5.832031 9.425781 L 4.476562 9.425781 C 4.351562 9.425781 4.230469 9.410156 4.117188 9.378906 C 4.0625 9.324219 4.035156 9.261719 4.035156 9.1875 C 4.035156 8.410156 4.074219 7.425781 4.15625 6.242188 C 4.230469 5.253906 4.300781 4.269531 4.371094 3.285156 L 10.523438 3.285156 C 10.667969 3.285156 10.792969 3.308594 10.910156 3.351562 C 10.957031 3.460938 10.984375 3.84375 10.984375 4.503906 C 10.984375 4.613281 10.976562 4.703125 10.96875 4.777344 C 10.929688 4.953125 10.769531 5.039062 10.492188 5.039062 L 6.035156 5.039062 C 6.054688 5.335938 6.027344 5.789062 5.960938 6.398438 C 5.898438 7 5.871094 7.453125 5.890625 7.75 C 6.453125 7.398438 7.039062 7.222656 7.652344 7.222656 C 8.777344 7.222656 9.671875 7.605469 10.328125 8.375 C 10.949219 9.097656 11.261719 10.035156 11.261719 11.179688 Z M 11.261719 11.179688 "/>
<path style=" stroke:none;fill-rule:nonzero;fill:rgb(0%,0%,0%);fill-opacity:1;" d="M 87.738281 128.820312 C 87.738281 127.589844 88.109375 126.613281 88.851562 125.886719 C 89.589844 125.164062 90.574219 124.800781 91.796875 124.800781 C 92.972656 124.800781 93.90625 125.089844 94.589844 125.664062 C 95.332031 126.28125 95.703125 127.167969 95.703125 128.324219 C 95.703125 128.511719 95.554688 128.605469 95.261719 128.605469 L 94.1875 128.605469 C 94.070312 128.605469 93.964844 128.589844 93.867188 128.554688 C 93.832031 128.5 93.8125 128.429688 93.800781 128.339844 C 93.707031 127.722656 93.53125 127.277344 93.265625 127.007812 C 92.972656 126.707031 92.519531 126.554688 91.90625 126.554688 C 91.292969 126.554688 90.796875 126.769531 90.421875 127.203125 C 90.066406 127.617188 89.886719 128.132812 89.886719 128.753906 C 89.886719 130.285156 90.519531 131.050781 91.78125 131.050781 C 92.242188 131.050781 92.703125 130.890625 93.167969 130.574219 L 94.523438 130.574219 C 94.648438 130.574219 94.769531 130.589844 94.882812 130.621094 C 94.9375 130.675781 94.964844 130.738281 94.964844 130.8125 C 94.964844 131.589844 94.925781 132.574219 94.84375 133.757812 C 94.769531 134.746094 94.699219 135.730469 94.628906 136.714844 L 88.476562 136.714844 C 88.332031 136.714844 88.207031 136.691406 88.089844 136.648438 C 88.042969 136.539062 88.015625 136.15625 88.015625 135.496094 C 88.015625 135.386719 88.023438 135.296875 88.03125 135.222656 C 88.070312 135.046875 88.230469 134.960938 88.507812 134.960938 L 92.964844 134.960938 C 92.945312 134.664062 92.972656 134.210938 93.039062 133.601562 C 93.101562 133 93.128906 132.546875 93.109375 132.25 C 92.546875 132.601562 91.960938 132.777344 91.347656 132.777344 C 90.222656 132.777344 89.328125 132.394531 88.671875 131.625 C 88.050781 130.902344 87.738281 129.964844 87.738281 128.820312 Z M 87.738281 128.820312 "/>
</g>
</svg>

<svg xmlns="http://www.w3.org/2000/svg" width="99" height="140"><path d="M9.298 719.743h215.404c4.93 0 8.92 4.005 8.92 8.938v314.362c0 4.934-3.99 8.938-8.92 8.938H9.298c-4.93 0-8.92-4.004-8.92-8.938V728.681c0-4.933 3.99-8.938 8.92-8.938Zm0 0" style="fill-rule:nonzero;fill:#fff;fill-opacity:1;stroke-width:.756;stroke-linecap:butt;stroke-linejoin:miter;stroke:gray;stroke-opacity:1;stroke-miterlimit:4" transform="matrix(.42308 0 0 .42042 0 -302.435)"/><path d="M23.785 32.773h2.035v7.047h-2.035Zm0 0" style="stroke:none;fill-rule:nonzero;fill:#000;fill-opacity:1"/><path d="M36 29.406a5.95 5.95 0 0 1-2.324 8.106 5.989 5.989 0 0 1-8.133-2.317 5.95 5.95 0 0 1-.738-2.492c-.223 3.29-3.078 5.77-6.375 5.547-3.293-.223-5.785-3.07-5.559-6.355.223-3.286 3.078-5.766 6.371-5.543a6.063 6.063 0 0 1 2.48.722c-2.824-1.691-3.75-5.351-2.054-8.176a5.99 5.99 0 0 1 8.203-2.058 5.95 5.95 0 0 1 2.067 8.176 6.08 6.08 0 0 1-2.075 2.07c2.89-1.598 6.532-.559 8.137 2.32ZM6.938 23.441h.68v2.348h-.68Zm0 0" style="stroke:none;fill-rule:nonzero;fill:#000;fill-opacity:1"/><path d="M11.012 22.316c.535.961.187 2.172-.774 2.704a2.002 2.002 0 0 1-2.715-.774 1.997 1.997 0 0 1-.246-.828 1.99 1.99 0 0 1-2.12 1.848A1.99 1.99 0 0 1 3.3 23.148a1.99 1.99 0 0 1 2.125-1.847c.289.02.57.101.824.238a1.988 1.988 0 0 1-.684-2.727 1.998 1.998 0 0 1 2.735-.683 1.982 1.982 0 0 1-.004 3.414 2.005 2.005 0 0 1 2.715.773ZM91.621 116.559h.68v-2.348h-.68Zm0 0" style="stroke:none;fill-rule:nonzero;fill:#000;fill-opacity:1"/><path d="M95.691 117.684a1.981 1.981 0 0 0-.773-2.704 1.998 1.998 0 0 0-2.711.774c-.14.254-.227.539-.246.828a1.99 1.99 0 0 0-2.125-1.848 1.988 1.988 0 1 0 .273 3.965c.286-.02.567-.101.825-.238a1.985 1.985 0 0 0-.684 2.727 1.997 1.997 0 0 0 2.734.683 1.982 1.982 0 0 0-.004-3.414 2 2 0 0 0 2.711-.773ZM48.48 74.867h2.036v7.047H48.48Zm0 0" style="stroke:none;fill-rule:nonzero;fill:#000;fill-opacity:1"/><path d="M60.695 71.5c1.606 2.875.563 6.508-2.324 8.105-2.887 1.598-6.527.563-8.133-2.316a5.894 5.894 0 0 1-.738-2.492c-.223 3.289-3.078 5.77-6.375 5.547-3.293-.223-5.785-3.07-5.559-6.356.223-3.285 3.075-5.765 6.371-5.543a6.063 6.063 0 0 1 2.481.723c-2.824-1.691-3.75-5.352-2.055-8.176a5.99 5.99 0 0 1 8.203-2.058 5.95 5.95 0 0 1 2.067 8.175 6.08 6.08 0 0 1-2.074 2.07c2.89-1.597 6.53-.558 8.136 2.321ZM73.176 32.773h2.035v7.047h-2.035Zm0 0" style="stroke:none;fill-rule:nonzero;fill:#000;fill-opacity:1"/><path d="M85.39 29.406a5.95 5.95 0 0 1-2.324 8.106 5.989 5.989 0 0 1-8.132-2.317 5.894 5.894 0 0 1-.739-2.492c-.222 3.29-3.078 5.77-6.375 5.547-3.293-.223-5.785-3.07-5.558-6.355.222-3.286 3.074-5.766 6.37-5.543a6.063 6.063 0 0 1 2.481.722c-2.824-1.691-3.75-5.351-2.054-8.176a5.99 5.99 0 0 1 8.203-2.058 5.95 5.95 0 0 1 2.066 8.176 6.08 6.08 0 0 1-2.074 2.07c2.89-1.598 6.531-.559 8.137 2.32ZM23.785 107.227h2.035v-7.047h-2.035Zm0 0" style="stroke:none;fill-rule:nonzero;fill:#000;fill-opacity:1"/><path d="M36 110.594a5.95 5.95 0 0 0-2.324-8.106 5.989 5.989 0 0 0-8.133 2.317 5.95 5.95 0 0 0-.738 2.492c-.223-3.29-3.078-5.77-6.375-5.547-3.293.223-5.785 3.07-5.559 6.352.223 3.285 3.078 5.77 6.371 5.546a6.063 6.063 0 0 0 2.48-.722c-2.824 1.691-3.75 5.351-2.054 8.176a5.99 5.99 0 0 0 8.203 2.058 5.95 5.95 0 0 0 2.067-8.176 6.08 6.08 0 0 0-2.075-2.07c2.89 1.598 6.532.559 8.137-2.32ZM73.176 107.227h2.035v-7.047h-2.035Zm0 0" style="stroke:none;fill-rule:nonzero;fill:#000;fill-opacity:1"/><path d="M85.39 110.594a5.95 5.95 0 0 0-2.324-8.106 5.989 5.989 0 0 0-8.132 2.317 5.894 5.894 0 0 0-.739 2.492c-.222-3.29-3.078-5.77-6.375-5.547-3.293.223-5.785 3.07-5.558 6.352.222 3.285 3.074 5.77 6.37 5.546a6.063 6.063 0 0 0 2.481-.722c-2.824 1.691-3.75 5.351-2.054 8.176a5.99 5.99 0 0 0 8.203 2.058 5.95 5.95 0 0 0 2.066-8.176 6.08 6.08 0 0 0-2.074-2.07c2.89 1.598 6.531.559 8.137-2.32ZM11.262 11.18c0 1.23-.371 2.207-1.114 2.933-.738.723-1.722 1.086-2.945 1.086-1.176 0-2.11-.289-2.793-.863-.742-.617-1.113-1.504-1.113-2.66 0-.188.148-.281.441-.281h1.075c.117 0 .222.015.32.05a.516.516 0 0 1 .066.215c.094.617.27 1.063.535 1.332.293.301.746.453 1.36.453.613 0 1.11-.215 1.484-.648.356-.414.535-.93.535-1.55 0-1.532-.633-2.298-1.894-2.298-.461 0-.922.16-1.387.477H4.477c-.125 0-.247-.016-.36-.047a.26.26 0 0 1-.082-.191c0-.778.04-1.762.121-2.946.074-.988.145-1.972.215-2.957h6.152c.145 0 .27.024.387.067.047.109.074.492.074 1.152 0 .11-.007.2-.015.273-.04.176-.2.262-.477.262H6.035c.02.297-.008.75-.074 1.36-.063.601-.09 1.054-.07 1.351.562-.352 1.148-.527 1.761-.527 1.125 0 2.02.382 2.676 1.152.621.723.934 1.66.934 2.805ZM87.738 128.82c0-1.23.371-2.207 1.114-2.933.738-.723 1.722-1.086 2.945-1.086 1.176 0 2.11.289 2.793.863.742.617 1.113 1.504 1.113 2.66 0 .188-.148.281-.441.281h-1.075a.934.934 0 0 1-.32-.05.516.516 0 0 1-.066-.215c-.094-.617-.27-1.063-.535-1.332-.293-.301-.746-.453-1.36-.453-.613 0-1.11.215-1.484.648-.356.414-.535.93-.535 1.55 0 1.532.633 2.298 1.894 2.298.461 0 .922-.16 1.387-.477h1.355c.125 0 .247.016.36.047a.26.26 0 0 1 .082.191c0 .778-.04 1.762-.121 2.946-.074.988-.145 1.972-.215 2.957h-6.152a1.1 1.1 0 0 1-.387-.067c-.047-.109-.074-.492-.074-1.152 0-.11.007-.2.015-.273.04-.176.2-.262.477-.262h4.457c-.02-.297.008-.75.074-1.36.063-.601.09-1.054.07-1.351-.562.352-1.148.527-1.761.527-1.125 0-2.02-.382-2.676-1.152-.621-.723-.934-1.66-.934-2.805Zm0 0" style="stroke:none;fill-rule:nonzero;fill:#000;fill-opacity:1"/></svg>
